img/maki/src/bus-18i.svg

<svg xmlns="http://www.w3.org/2000/svg" width="18" height="18" id="svg4619"><rect width="18" height="18" id="canvas" fill="#5556be" fill-opacity="0.94117647"/><path d="M 6.5,2 6.5,3 5,3 C 4.5,3 4,3.5 4,4 l 0,10 1,0 0,1 2,0 0,-1 5,0 0,1 2,0 0,-1 1,0 0,-10 C 15,3.5 14.5,3 14,3 l -1.5,0 0,-1 -6,0 z M 6,4 13,4 13,8 6,8 6,4 z m 0.75,6.5 c 0.41421,0 0.75,0.33579 0.75,0.75 C 7.5,11.66421 7.16421,12 6.75,12 6.33579,12 6,11.66421 6,11.25 6,10.83579 6.33579,10.5 6.75,10.5 z m 5.5,0 c 0.41421,0 0.75,0.33579 0.75,0.75 0,0.41421 -0.33579,0.75 -0.75,0.75 -0.41421,0 -0.75,-0.33579 -0.75,-0.75 0,-0.41421 0.33579,-0.75 0.75,-0.75 z" id="path12748" opacity="0.3" color="#000000" fill="#ffffff" stroke="#ffffff" stroke-width="2" stroke-linecap="round" stroke-linejoin="round" overflow="visible" enable-background="accumulate"/><path d="M 6.5,2 6.5,3 5,3 C 4.5,3 4,3.5 4,4 l 0,10 1,0 0,1 2,0 0,-1 5,0 0,1 2,0 0,-1 1,0 0,-10 C 15,3.5 14.5,3 14,3 l -1.5,0 0,-1 -6,0 z M 6,4 13,4 13,8 6,8 6,4 z m 0.75,6.5 c 0.41421,0 0.75,0.33579 0.75,0.75 C 7.5,11.66421 7.16421,12 6.75,12 6.33579,12 6,11.66421 6,11.25 6,10.83579 6.33579,10.5 6.75,10.5 z m 5.5,0 c 0.41421,0 0.75,0.33579 0.75,0.75 0,0.41421 -0.33579,0.75 -0.75,0.75 -0.41421,0 -0.75,-0.33579 -0.75,-0.75 0,-0.41421 0.33579,-0.75 0.75,-0.75 z" id="path8522-6-8-58" color="#000000" fill="#ffffff" stroke-width="2" overflow="visible" enable-background="accumulate"/></svg>

<svg xmlns="http://www.w3.org/2000/svg" width="18" height="18">
  <path fill="#5565be" d="M0 0h18v18H0z"/>
  <path d="M6.5 2v1H5c-.5 0-1 .5-1 1v10h1v1h2v-1h5v1h2v-1h1V4c0-.5-.5-1-1-1h-1.5V2h-6zM6 4h7v4H6V4zm.75 6.5c.414 0 .75.336.75.75s-.336.75-.75.75-.75-.336-.75-.75.336-.75.75-.75zm5.5 0c.414 0 .75.336.75.75s-.336.75-.75.75-.75-.336-.75-.75.336-.75.75-.75z" opacity=".3" color="#000" fill="#fff" stroke="#fff" stroke-width="2" stroke-linecap="round" stroke-linejoin="round" overflow="visible"/>
  <path d="M6.5 2v1H5c-.5 0-1 .5-1 1v10h1v1h2v-1h5v1h2v-1h1V4c0-.5-.5-1-1-1h-1.5V2h-6zM6 4h7v4H6V4zm.75 6.5c.414 0 .75.336.75.75s-.336.75-.75.75-.75-.336-.75-.75.336-.75.75-.75zm5.5 0c.414 0 .75.336.75.75s-.336.75-.75.75-.75-.336-.75-.75.336-.75.75-.75z" color="#000" fill="#fff" overflow="visible"/>
</svg>
